X: 14626
T: Gan Ainm
R: barndance
M: 4/4
K: Dmajor
|:A2|d2 cd ed cd|e3 f e2 A2|f3 a g2 f2|e4- e3 f|
g2 e2 dc BA|f2 d2 A2 ^GA|B2 g2 f2 e2|d6:|

